**kern	**kern	**dynam
*part1	*part1	*part1
*staff2	*staff1	*
*I"Piano	*	*
*clefF4	*clefG2	*
*k[f#c#g#d#]	*k[f#c#g#d#]	*
=1	=1	=1
*^	*^	*
2G#	2BB_	2e [2b	4B	.
.	.	.	4B	>
*	*	*v	*v	*
=	=	=	=
4A	2BB]	4c# 4b]	.
4r	.	8AL 8d# 8g#	.
.	.	8AJ 8d# 8f#	.
=	=	=	=
4BB	[2EE	(2G# [2e [2g#	]
4BB	.	.	.
=	=	=	=
2Cn	2EE]	4A) 4e] 4g#]	.
.	.	8AL 8e 8g#	.
.	.	8AJ 8e 8f#	.
=	=	=	=
4BB	[2EE	[2G# [2e [2g#	.
4BB	.	.	.
=	=	=	=
2Cn^	2EE]	4G#] 4e] 4g#]	.
*	*	*clefF4	*
.	.	(8EL 8G#	ppp
.	.	8EJ) 8F#	.
*v	*v	*	*
=	=	=
2EE; 2BB	2E; 2G#	.
==	==	==
*-	*-	*-
!!!system-decoration: {(s1,s2)}
